X: 1
T: CALEDONIAN CLUB -- STRATHSPEY
C: Edwin Christie
B: Ryan's Mammoth Collection of Fiddle Tunes
R: strathspey
M: C
L: 1/16
Z: Contributed 20080604 by John Chambers jc:jc.tzo.net
K: D
uA2 \
| (vFA3)(A3.F) (GB3)(B.G) | (FA3)(A3.d) (BE3)"SEGUE"(E3G) \
| (FA3)A3F (GB3)B3d | A3B (cdeg) (fd3)d2 :|
|: ug2 \
| (vfd3)(a3.d) (bd3)a4 | (fd3)(a3.d) (be3)(e3.g) \
| "SEGUE"(fd3)a3d (bd3)a4 | A3b (agfe) (fd3)d2 :|
